X: 49
M:6/8
L:1/8
K:G
E/2F/2GE E/2F/2GE|E2 B BGB|cBA dcB|D2 A AFD:|
|:B/2c/2dE B2 E|B/2c/2dE BGE|B/2c/2dE B2 E|B/2c/2dB AFD|

